X: 42513
T: Wheatsheaf, The
R: jig
M: 6/8
K: Gmajor
|:gfg d2 B|cde d2 B|cac BgB|Adc BAG|
gfg d2 B|cde d2 B|caf gdB|cAFG3:|
|:B^AB G=AB|cBc ABc|B/c/dc BAG|FDE FF/G/A|
B^AB G2 B|cAF D2 c|1 BB/c/d efg|afd g3:|2 BcD EFG|AA/B/c def||

